X:1
T: Colonel Fraser
C:
R:Reel
Q: 232
K:G
M:4/4
L:1/8
dc|BG AF DG ((3GFG)|AF cF dF cF|BG AF DG Gg|fd cA d2 cA|
BG AF DG ((3GFG)|AF cF dF cF|BG AF DG Gg|((3fed) cA BG G2|
dg gf g2 bg|fd cB AB cA|Gg gf gb ag|af cA BG G2|
gf ge d2 dc|((3Bcd) BG AB cA|GB Ac ((3Bcd) eg|fd cA BG G2|
Bd ((3ddd) BG dG|AF cF ((3ABc) AF|Bc ((3ddd) BG dG|cA FG AG G2|
Bd ((3ddd) BG dG|AF cF ((3ABc) AF|((3GAB) ((3ABc) ((3Bcd) eg|fd cA BG G2|
((3BcB) GB ((3BdB) GB|((3ABA) FA ((3AcA) FA|((3BcB) GB ((3BdB) GB|cA FG AG G2|
((3BcB) GB GB GB|((3ABA) FA FA FA|GB Ac ((3Bcd) eg|fd cA d2 cA|
BG AF DG ((3GFG)|AF cF dF cF|BG AF DG Gg|fd cA d2 cA|
BG AF DG ((3GFG)|AF cF dF cF|BG AF DG Gg|((3fed) cA BG G2||
